X:288
T:Peeler's Jackat
Z: id:dc-reel-383
M:C
L:1/8
K:G Major
DGG2 AGFD|AGG2 Addc|AGG2 AGFD|defd cAFA:|!
BGdG BGG2|DGBd cAFA|B3G AGFD|defd cAFA|]!